!!!COM: Aaron Copland
!!!OTL: [T720_Cop-w39p1m1h1m1-6]
**kern	**dynam	**kern	**dynam	**kern	**dynam	**kern	**kern	**dynam	**kern	**dynam
*grp:A	*grp:A	*grp:A	*grp:A	*grp:A	*grp:A	*grp:A	*grp:A	*grp:A	*grp:B	*grp:B
*part6	*part6	*part5	*part5	*part4	*part4	*part3	*part2	*part2	*part1	*part1
*staff6	*staff6	*staff5	*staff5	*staff4	*staff4	*staff3	*staff2	*staff2	*staff1	*staff1
*I"Violoncello III	*I"Violoncello III	*I"Violoncello II	*I"Violoncello II	*I"Violoncello I	*I"Violoncello I	*I"Viola III	*I"Viola II	*I"Viola II	*I"Viola I	*I"Viola I
*I'Vc.	*	*I'Vc.	*	*I'Vc.	*	*I'Vla.	*I'Vla.	*	*I'Vla.	*
*clefF4	*	*clefF4	*	*clefF4	*	*clefC3	*clefC3	*	*clefC3	*
*k[]	*	*k[]	*	*k[]	*	*k[]	*k[]	*	*k[]	*
*C:	*	*C:	*	*C:	*	*C:	*C:	*	*C:	*
*M4/4	*	*M4/4	*	*M4/4	*	*M4/4	*M4/4	*	*M4/4	*
=1	=1	=1	=1	=1	=1	=1	=1	=1	=1	=1
!	!LO:DY:ed=brack	!	!LO:DY:ed=brack	!	!LO:DY:ed=brack	!	!	!	!	!
[2.E	p	[2.D	p	[2.A	p	1r	1r	.	2r	.
.	.	.	.	.	.	.	.	.	4r	.
!	!	!	!	!	!	!	!	!	!LO:TX:a:t=poco vibrato (somewhat deadened)	!LO:DY:t=%s legato molto
8E]	.	8D]	.	8A]	.	.	.	.	4Dv	mp
8r	.	8r	.	8r	.	.	.	.	.	.
!!LO:REH:t=1
=2	=2	=2	=2	=2	=2	=2	=2	=2	=2	=2
4r	.	4r	.	4r	.	1r	2r	.	2A	.
2D	p	2C	p	2B	p	.	.	.	.	.
.	.	.	.	.	.	.	4r	.	2G	.
!	!	!	!	!	!	!	!LO:TX:a:t=poco vibrato (somewhat deadened)	!LO:DY:t=%s legato molto	!	!
4E	.	4D	.	4A	.	.	4Dv	mp	.	.
=3	=3	=3	=3	=3	=3	=3	=3	=3	=3	=3
2E-X	.	2BB-X	.	2c	.	1r	2A	.	4A	.
.	.	.	.	.	.	.	.	.	2d	.
2B-X	.	2D	.	2E-X	.	.	2G	.	.	.
.	.	.	.	.	.	.	.	.	4c	.
=4	=4	=4	=4	=4	=4	=4	=4	=4	=4	=4
2.D-X	.	2.E-X	.	2d	.	1r	2.B-X	.	4B-X	.
.	.	.	.	.	.	.	.	.	2G	.
.	.	.	.	4B-X	.	.	.	.	.	.
4BB-X	.	4E-	.	4d	.	.	4E-X	.	4d	.
=5	=5	=5	=5	=5	=5	=5	=5	=5	=5	=5
!	!	!	!	!	!	!	!	!	!LO:TX:b:i:t=gradualmente più espr.	!
2G	.	2F	.	2.c	.	1r	4r	.	2.c	.
!	!	!	!	!	!	!	!LO:TX:b:i:t=gradualmente più espr.	!	!	!
.	.	.	.	.	.	.	4G	.	.	.
2E-X	.	2F	.	.	.	.	[2A-X	.	.	.
.	.	.	.	4r	.	.	.	.	4c	.
=6	=6	=6	=6	=6	=6	=6	=6	=6	=6	=6
!LO:TX:b:i:t=gradualmente più espr.	!	!	!	!	!	!	!	!	!	!
4r	.	2.G-X	.	2r	.	1r	4A-]	.	2.e-X	.
4FF	.	.	.	.	.	.	4A-X	.	.	.
*	*	*	*	*clefC4	*	*	*	*	*	*
!	!	!	!	!	!LO:DY:t=%s più espr. 	!	!	!	!	!
2C	< [	.	.	(4a-X~v	mp	.	2B-X	.	.	.
.	.	4F	< [	4a-~)	.	.	.	.	4e-	.
=7	=7	=7	=7	=7	=7	=7	=7	=7	=7	=7
2.B-X	mp	2.c	mp	4a-X	.	1r	4c	.	2a-X	.
.	.	.	.	2f	.	.	2f	.	.	.
.	.	.	.	.	.	.	.	.	4c	.
4AA-X	.	4B-X	.	4g	.	.	4B-X	.	4g	.
=	=	=	=	=	=	=	=	=	=	=
*-	*-	*-	*-	*-	*-	*-	*-	*-	*-	*-
!!!system-decoration: [(s1,s2,s3)][(s4,s5,s6)]
